X:0
T:Honey-Ant Song of Ljaba
O:Central Australia
G:song
B:Charles Haywood, Folk Songs of the World
M:6/8
L:1/8
Q:3/8=108
K:C
% lydian/major/mixolydian pentatonic
e|(2(ed) (dc)c|c2c c3| c2 c c2:|
e|(2(ed) (dc)c|c2c c3| c2 c c2c|
  (2(AG) (GE)E|E2E E3|(ED)D C2E|
     E3   E2 E|E2E E3|(ED)C C2C|
     C3   C2 C|C2C C3| C2 C C2E|
     E3   E2 E|E2E E3|(ED)C C2C|
     C3   C2 C|C2C C3| C2 C C3|]


16. Tonally Un-Scottish Scottish Music
=== ==================================

The 18th century saw the introduction of new harmonic and melodic forms
from Italy, France, Germany and England.  Sometimes these were adopted
wholesale, but there were some unusual fusions of the European style
with the native one, like this reel by the leading Scottish art-music
composer of the mid-18th century, the Earl of Kelly:

